Hatter-kde/devices/16/network-wireless-connected-50.svg

<svg xmlns="http://www.w3.org/2000/svg" viewBox="0 0 16 16">
  <defs id="defs3051">
    <style type="text/css" id="current-color-scheme">
      .ColorScheme-Text {
        color:#363636;
      }
      </style>
  </defs>
 <path 
     style="fill:currentColor;fill-opacity:1;stroke:none" 
     class="ColorScheme-Text"
     d="m 7.9997736,8.9059536 c -1.2954831,0 -2.5187557,0.5704129 -3.3554486,1.5663714 -0.2596038,0.308779 -0.2187088,0.769328 0.090567,1.028905 0.1368345,0.114926 0.30308,0.172226 0.4691689,0.172226 0.2084413,0 0.4155817,-0.08939 0.5597364,-0.261309 0.5586319,-0.6648 1.3734534,-1.045237 2.2359759,-1.045237 0.8625229,0 1.67737,0.380437 2.2359754,1.045237 0.144652,0.172416 0.351766,0.261309 0.559737,0.261309 0.166089,0 0.332334,-0.0568 0.469169,-0.172226 0.309276,-0.259604 0.350145,-0.720152 0.09057,-1.028905 C 10.518503,9.4763665 9.2952306,8.9059536 7.9997736,8.9059536 Z M 7.9374167,11.679396 C 7.3660445,11.733839 6.8165138,12.161224 6.7971579,12.797384 6.7971579,13.461581 7.3355989,14 7.9997744,14 8.66395,14 9.2023908,13.461581 9.2023908,12.797384 9.1007519,11.943462 8.5087881,11.624955 7.9374167,11.679396 Z"
     />
 <path 
     style="fill:currentColor;fill-opacity:0.5;stroke:none" 
     class="ColorScheme-Text"
     d="m 7.9997736,2.5974132 c -3.020999,0 -5.874458,1.3332678 -7.82888534,3.6583299 -0.25960384,0.3087796 -0.21870885,0.7693276 0.0905674,1.0289053 0.13683447,0.1149264 0.30310615,0.1707419 0.46916894,0.1707419 0.20844128,0 0.41511119,-0.087906 0.55973639,-0.2598246 1.6753731,-1.993381 4.1208775,-3.1371961 6.7094126,-3.1371961 2.5885354,0 5.0340654,1.1442857 6.7094124,3.1371961 0.144651,0.1719189 0.351269,0.2598246 0.559737,0.2598246 0.166089,0 0.333819,-0.055319 0.470654,-0.1707419 C 16.048356,7.0255152 16.088262,6.564026 15.828659,6.2557431 13.874728,3.930681 11.020773,2.5974132 7.9997736,2.5974132 Z m 0,3.0941394 c -2.1580058,0 -4.1956291,0.9528048 -5.5914247,2.6130925 -0.2595776,0.3087797 -0.2201935,0.7693279 0.089083,1.0289055 0.1368345,0.1149267 0.30308,0.1707424 0.4691689,0.1707424 0.2084413,0 0.4155818,-0.087906 0.5597364,-0.2598247 1.1167409,-1.3290779 2.7478947,-2.0919592 4.4734366,-2.0919592 1.7255421,0 3.3561994,0.7628813 4.4734374,2.0919592 0.144651,0.1724155 0.351791,0.2598247 0.559736,0.2598247 0.166088,0 0.332308,-0.055318 0.469168,-0.1707424 C 13.811366,9.073973 13.85075,8.6129543 13.591199,8.3046451 12.19488,6.6443835 10.157779,5.6915526 7.9997736,5.6915526 Z"
     />
</svg>

<?xml version="1.0" encoding="UTF-8"?>
<svg viewBox="0 0 16 16" xmlns="http://www.w3.org/2000/svg">
 <defs id="defs3051">
  <style id="current-color-scheme" type="text/css">.ColorScheme-Text {
        color:#363636;
      }</style>
 </defs>
 <path class="ColorScheme-Text" d="m7.9998 8.906c-1.2955 0-2.5188 0.57041-3.3554 1.5664-0.2596 0.30878-0.21871 0.76933 0.090567 1.0289 0.13683 0.11493 0.30308 0.17223 0.46917 0.17223 0.20844 0 0.41558-0.08939 0.55974-0.26131 0.55863-0.6648 1.3735-1.0452 2.236-1.0452 0.86252 0 1.6774 0.38044 2.236 1.0452 0.14465 0.17242 0.35177 0.26131 0.55974 0.26131 0.16609 0 0.33233-0.0568 0.46917-0.17223 0.30928-0.2596 0.35014-0.72015 0.09057-1.0289-0.83672-0.99596-2.06-1.5664-3.3555-1.5664zm-0.062357 2.7734c-0.57137 0.054443-1.1209 0.48183-1.1403 1.118 0 0.6642 0.53844 1.2026 1.2026 1.2026 0.66418 0 1.2026-0.53842 1.2026-1.2026-0.10164-0.85392-0.6936-1.1724-1.265-1.118z" fill="currentColor"/>
 <path class="ColorScheme-Text" d="m7.9998 2.5974c-3.021 0-5.8745 1.3333-7.8289 3.6583-0.2596 0.30878-0.21871 0.76933 0.090567 1.0289 0.13683 0.11493 0.30311 0.17074 0.46917 0.17074 0.20844 0 0.41511-0.087906 0.55974-0.25982 1.6754-1.9934 4.1209-3.1372 6.7094-3.1372 2.5885 0 5.0341 1.1443 6.7094 3.1372 0.14465 0.17192 0.35127 0.25982 0.55974 0.25982 0.16609 0 0.33382-0.055319 0.47065-0.17074 0.30878-0.25913 0.34869-0.72062 0.089082-1.0289-1.9539-2.3251-4.8079-3.6583-7.8289-3.6583zm0 3.0941c-2.158 0-4.1956 0.9528-5.5914 2.6131-0.25958 0.30878-0.22019 0.76933 0.089083 1.0289 0.13683 0.11493 0.30308 0.17074 0.46917 0.17074 0.20844 0 0.41558-0.087906 0.55974-0.25982 1.1167-1.3291 2.7479-2.092 4.4734-2.092 1.7255 0 3.3562 0.76288 4.4734 2.092 0.14465 0.17242 0.35179 0.25982 0.55974 0.25982 0.16609 0 0.33231-0.055318 0.46917-0.17074 0.30925-0.25958 0.34863-0.7206 0.089084-1.0289-1.3963-1.6603-3.4334-2.6131-5.5914-2.6131z" fill="currentColor" fill-opacity=".5"/>
</svg>
